X: 2072
T: Horsetails a Poppin
R: reel
C: Rick Gagne
N: 1998 on whistle
M: 4/4
Q: 1/4=175
K: G
BA |"G"G2GB "Am"AE~E2|"Em"G2Bd "C"(3gfe dB|"G"G2GB "Am"AE~E2|1 "G"GBdB G2 :|\
[2 "G"GBdB G2Bd ||
"C"gfeg "D"fedf | "Em"edBe "Bm"dBAB | "Em"G2GB "Am"AE~E2 |1 "G"GBdB "Em"eBdB :|\
[2 "G"GBdB G2||
